X:1
T:Title
L:1/8
Q:1/4=115
M:3/4
K:C
V:1 treble nm="Church Organ, Staff"
V:1
 A2 e3 e | Bc d2 d2- | dA c3 d | Bc A4 | A2 e3 e | Bc d2 d2- | dA c3 d | Bc A4 | A2 B3 ^G | %9
w: By~Old~French~Carol * *|||||||||
 AB c2 c2 | z A d3 c | BA ^G4 | A2 B3 ^G | AB c2 c2 | z A B3 A | A^G A4 |] %16
w: |||||||

